X:1
T:War Gott nicht mit uns diese Zeit
T:War Gott nicht mit uns diese Zeit
T:BWV 257
T:Johann Sebastian Bach
C:Johann Sebastian Bach
%%score 1 2 3 4
L:1/8
M:4/4
K:C
V:1 treble 
V:2 treble 
V:3 bass 
V:4 bass 
V:1
 c2 | cB AB cd e2 | d2 d2 !fermata!c2 c2 | B2 AB c2 d2 | B4 !fermata!A2 :| d2 | e2 e2 Bc d2 | %7
 c2 c2 !fermata!B2 c2 | d2 AB c2 B2 | A2 A2 !fermata!G2 c2 | B2 AB c2 dc | B4 !fermata!A4 |] %12
V:2
 A2 | G2 F2 ED C2 | DE F2 !fermata!E2 ^F2 | G2 ^F^G A2 A=G | F2 ED !fermata!C2 :| G2 | G2 G2 D3 E | %7
 ^F^G A2 !fermata!G2 A2 | AG ^F2 E2 DE | F2 F2 !fermata!E2 A2 | G2 A2 ^GB A=G | %11
 F2 ED !fermata!^C4 |] %12
V:3
 E2 | ED C2 CB, A,G, | A,2 B,2 !fermata!C2 C2 | D2 D2 E2 A,2 | A,2 ^G,2 !fermata!A,2 :| =G,2 | %6
 C2 G,A, B,2 A,B, | CD E2 !fermata!E2 E2 | D2 D2 G,A, B,2 | CB, CD !fermata!E2 _E2 | D2 D2 E2 A,2 | %11
 A,2 ^G,2 !fermata!E,4 |] %12
V:4
 A,2 | E,2 F,G, A,B, C2 | F,2 G,2 !fermata!C,2 A,2 | G,2 D2 A,G, F,E, | D,2 E,2 !fermata!A,,2 :| %5
 B,,2 | C,D, E,F, G,2 ^F,^G, | A,B, CD !fermata!E2 A,G, | ^F,E, D,2 E,F, G,2 | %9
 A,G, A,B, !fermata!C2 ^F,2 | G,2 F,2 E,C, F,E, | D,B,, E,2 !fermata!A,,4 |] %12

